.local/share/icons/Gruvbox-Plus-Dark/mimetypes/scalable/application-vnd.geogebra.file.svg

<svg width="256" height="256" viewBox="0 0 256 256" fill="none" xmlns="http://www.w3.org/2000/svg">
<g opacity="0.4" filter="url(#filter0_f)">
<path d="M55.0839 15.5636H155.608L216.009 75.7129L216.011 224.609C216.011 233.52 208.749 240.737 199.838 240.737H55.0838C46.1734 240.737 39 233.564 39 224.654V31.6474C39 22.737 46.1734 15.5636 55.0838 15.5636H55.0839Z" fill="#282828"/>
</g>
<path d="M55.0839 15H155.608L216.009 75.1493L216.011 224.045C216.011 232.956 208.749 240.174 199.838 240.174H55.0838C46.1734 240.174 39 233 39 224.09V31.0838C39 22.1734 46.1734 15 55.0838 15H55.0839Z" fill="#ebdbb2"/>
<path d="M122.38 74.0295C115.154 74.0295 109.255 80.0473 109.255 87.4183C109.255 87.7636 109.334 88.0883 109.356 88.4293C99.6243 93.2765 91.1161 100.464 85.0593 109.147C83.8068 108.743 82.505 108.459 81.125 108.459C73.8993 108.459 68 114.477 68 121.848C68 127.261 71.1918 131.921 75.74 134.029C74.7243 146.358 79.0325 157.257 87.0286 165.042C86.8443 165.934 86.7509 166.843 86.75 167.754C86.75 175.126 92.6493 181.143 99.875 181.143C103.859 181.143 107.414 179.28 109.807 176.407C112.563 176.912 115.398 177.272 118.383 177.31C127.657 177.437 136.845 175.218 145.219 171.296C147.342 172.726 149.83 173.49 152.374 173.493C159.601 173.493 165.499 167.475 165.499 160.103C165.499 159.032 165.338 158.007 165.106 157.008C172.321 149.434 177.578 140.249 179.6 130.192C179.858 128.914 180.023 127.66 180.155 126.412C184.76 124.328 188 119.633 188 114.182C188 106.811 182.101 100.793 174.875 100.793C174.789 100.793 174.71 100.82 174.627 100.823C167.423 89.3736 154.103 81.9032 137.625 81.6584C136.503 81.6431 135.39 81.7535 134.268 81.8147C132.183 77.221 127.646 74 122.373 74L122.38 74.0295ZM122.38 77.8254C123.617 77.8213 124.841 78.0667 125.984 78.5474C127.127 79.0281 128.165 79.7347 129.04 80.6264C129.914 81.5181 130.606 82.5773 131.078 83.7431C131.549 84.9089 131.789 86.1583 131.785 87.4194C131.789 88.6804 131.549 89.9298 131.078 91.0956C130.606 92.2614 129.914 93.3207 129.04 94.2124C128.165 95.104 127.127 95.8106 125.984 96.2913C124.841 96.772 123.617 97.0174 122.38 97.0134C121.144 97.0174 119.919 96.772 118.777 96.2913C117.634 95.8106 116.595 95.104 115.721 94.2124C114.847 93.3207 114.154 92.2614 113.683 91.0956C113.212 89.9298 112.971 88.6804 112.975 87.4194C112.971 86.1583 113.212 84.9089 113.683 83.7431C114.154 82.5773 114.847 81.5181 115.721 80.6264C116.595 79.7347 117.634 79.0281 118.777 78.5474C119.919 78.0667 121.144 77.8213 122.38 77.8254V77.8254ZM135.592 91.8032C148.526 91.9825 158.801 97.4921 164.692 105.873C162.886 108.168 161.756 111.038 161.756 114.198C161.756 119.791 165.161 124.588 169.961 126.584C169.867 127.756 169.709 128.92 169.486 130.073C168.082 137.04 164.659 143.554 159.871 149.132C157.679 147.559 155.065 146.713 152.385 146.71C145.159 146.71 139.26 152.728 139.26 160.099C139.26 161.247 139.455 162.337 139.72 163.401C133.66 165.853 127.128 167.281 120.427 167.188C117.768 167.15 115.274 166.805 112.852 166.328C112.143 159.628 106.623 154.358 99.8718 154.358C97.5961 154.358 95.4811 155.004 93.6093 156.052C88.3668 150.275 85.6068 142.659 85.9861 134.251C90.8118 132.269 94.2468 127.457 94.2468 121.841C94.2468 119.332 93.5236 117.001 92.3343 114.989C97.2393 107.377 104.568 101.03 113.144 96.9063C115.594 99.3989 118.913 100.799 122.373 100.8C128.077 100.8 132.907 97.0254 134.707 91.8185C135 91.8142 135.292 91.7912 135.585 91.7956L135.592 91.8032ZM174.881 104.603C176.118 104.599 177.343 104.844 178.486 105.325C179.629 105.805 180.667 106.512 181.542 107.404C182.416 108.296 183.109 109.355 183.58 110.521C184.051 111.687 184.292 112.937 184.288 114.198C184.291 115.459 184.051 116.708 183.58 117.874C183.108 119.04 182.416 120.099 181.542 120.991C180.668 121.883 179.629 122.589 178.486 123.07C177.343 123.551 176.119 123.796 174.883 123.792C173.646 123.796 172.421 123.551 171.278 123.07C170.135 122.59 169.097 121.883 168.223 120.991C167.348 120.1 166.656 119.04 166.184 117.874C165.713 116.709 165.472 115.459 165.476 114.198C165.472 112.937 165.713 111.687 166.184 110.521C166.655 109.355 167.348 108.296 168.222 107.404C169.096 106.512 170.135 105.805 171.278 105.325C172.421 104.844 173.646 104.599 174.883 104.603H174.881ZM81.1293 112.254C82.3656 112.25 83.5904 112.495 84.7334 112.976C85.8763 113.457 86.9147 114.163 87.7888 115.055C88.663 115.947 89.3556 117.006 89.8268 118.172C90.2979 119.338 90.5384 120.588 90.5343 121.849C90.5382 123.11 90.2977 124.359 89.8264 125.525C89.3552 126.691 88.6626 127.75 87.7885 128.642C86.9143 129.533 85.876 130.24 84.7331 130.721C83.5902 131.201 82.3655 131.447 81.1293 131.443C79.8931 131.447 78.6683 131.201 77.5255 130.721C76.3826 130.24 75.3442 129.533 74.4701 128.642C73.596 127.75 72.9034 126.691 72.4321 125.525C71.9609 124.359 71.7203 123.11 71.7243 121.849C71.7203 120.588 71.9609 119.338 72.4321 118.172C72.9034 117.007 73.596 115.947 74.4701 115.056C75.3442 114.164 76.3826 113.457 77.5255 112.977C78.6683 112.496 79.8931 112.251 81.1293 112.255V112.254ZM152.381 150.509C153.618 150.505 154.842 150.751 155.985 151.231C157.128 151.712 158.166 152.419 159.041 153.31C159.915 154.202 160.607 155.261 161.079 156.427C161.55 157.593 161.79 158.842 161.786 160.103C161.79 161.364 161.55 162.614 161.079 163.78C160.607 164.945 159.915 166.005 159.041 166.896C158.166 167.788 157.128 168.495 155.985 168.975C154.842 169.456 153.618 169.701 152.381 169.697C151.145 169.701 149.92 169.456 148.778 168.975C147.635 168.495 146.596 167.788 145.722 166.896C144.848 166.005 144.156 164.945 143.684 163.78C143.213 162.614 142.972 161.364 142.976 160.103C142.972 158.842 143.213 157.593 143.684 156.427C144.156 155.261 144.848 154.202 145.722 153.31C146.596 152.419 147.635 151.712 148.778 151.231C149.92 150.751 151.145 150.505 152.381 150.509V150.509ZM99.8793 158.16C101.116 158.156 102.34 158.401 103.483 158.882C104.626 159.362 105.665 160.069 106.539 160.961C107.413 161.852 108.106 162.912 108.577 164.078C109.049 165.243 109.289 166.493 109.285 167.754C109.289 169.015 109.049 170.265 108.577 171.431C108.106 172.596 107.413 173.656 106.539 174.547C105.665 175.439 104.626 176.146 103.483 176.626C102.34 177.107 101.116 177.352 99.8793 177.348C98.6431 177.352 97.4183 177.107 96.2755 176.626C95.1326 176.145 94.0942 175.439 93.2201 174.547C92.346 173.655 91.6534 172.596 91.1821 171.43C90.7109 170.265 90.4703 169.015 90.4743 167.754C90.4703 166.493 90.7109 165.244 91.1821 164.078C91.6534 162.912 92.346 161.853 93.2201 160.961C94.0942 160.069 95.1326 159.363 96.2755 158.882C97.4183 158.401 98.6431 158.156 99.8793 158.16V158.16Z" fill="url(#paint0_linear)"/>
<path fill-rule="evenodd" clip-rule="evenodd" d="M155.608 20.3191H55.0839C49.1112 20.3191 44.3191 25.1111 44.3191 31.0838V224.09C44.3191 230.063 49.1111 234.855 55.0838 234.855H199.838C205.83 234.855 210.692 229.999 210.692 224.046V75.1493L155.608 20.3191ZM155.608 15H55.0839C46.1735 15 39 22.1734 39 31.0838V224.09C39 233 46.1734 240.174 55.0838 240.174H199.838C208.749 240.174 216.011 232.956 216.011 224.045L216.009 75.1493L155.608 15Z" fill="url(#paint1_linear)"/>
<path opacity="0.25" d="M155.608 17V61.2306C155.608 70.141 162.867 77.1605 171.777 77.1605L216.009 77.1493V75.1493L155.608 17Z" fill="#282828"/>
<path d="M155.608 15V59.2306C155.608 68.141 162.867 75.1605 171.777 75.1605L216.009 75.1493L155.608 15Z" fill="url(#paint2_linear)"/>
<defs>
<filter id="filter0_f" x="23.8778" y="0.441412" width="207.255" height="255.418" filterUnits="userSpaceOnUse" color-interpolation-filters="sRGB">
<feFlood flood-opacity="0" result="BackgroundImageFix"/>
<feBlend mode="normal" in="SourceGraphic" in2="BackgroundImageFix" result="shape"/>
<feGaussianBlur stdDeviation="7.5611" result="effect1_foregroundBlur"/>
</filter>
<linearGradient id="paint0_linear" x1="68" y1="74" x2="68" y2="181.143" gradientUnits="userSpaceOnUse">
<stop offset="1e-07" stop-color="#d3869b"/>
<stop offset="0.5" stop-color="#b16286"/>
<stop offset="1" stop-color="#8f3f71"/>
</linearGradient>
<linearGradient id="paint1_linear" x1="39" y1="15" x2="39" y2="240.174" gradientUnits="userSpaceOnUse">
<stop offset="1e-07" stop-color="#d3869b"/>
<stop offset="0.5" stop-color="#b16286"/>
<stop offset="1" stop-color="#8f3f71"/>
</linearGradient>
<linearGradient id="paint2_linear" x1="155.608" y1="15" x2="155.608" y2="75.1605" gradientUnits="userSpaceOnUse">
<stop offset="1e-07" stop-color="#d3869b"/>
<stop offset="0.5" stop-color="#b16286"/>
<stop offset="1" stop-color="#8f3f71"/>
</linearGradient>
</defs>
</svg>

<svg width="256" height="256" fill="none" version="1.1" viewBox="0 0 256 256" xmlns="http://www.w3.org/2000/svg">
  <path d="m55.08 15h100.5l60.4 60.15 2e-3 148.9c0 8.911-7.262 16.13-16.17 16.13h-144.8c-8.91 0-16.08-7.174-16.08-16.08v-193c0-8.91 7.173-16.08 16.08-16.08h1e-4z" fill="#ebdbb2"/>
  <path d="m122.4 74.03c-7.226 0-13.12 6.018-13.12 13.39 0 0.3453 0.079 0.67 0.101 1.011-9.732 4.847-18.24 12.03-24.3 20.72-1.252-0.404-2.554-0.688-3.934-0.688-7.226 0-13.12 6.018-13.12 13.39 0 5.413 3.192 10.07 7.74 12.18-1.016 12.33 3.292 23.23 11.29 31.01-0.1843 0.892-0.2777 1.801-0.2786 2.712 0 7.372 5.899 13.39 13.12 13.39 3.984 0 7.539-1.863 9.932-4.736 2.756 0.505 5.591 0.865 8.576 0.903 9.274 0.127 18.46-2.092 26.84-6.014 2.123 1.43 4.611 2.194 7.155 2.197 7.227 0 13.12-6.018 13.12-13.39 0-1.071-0.161-2.096-0.393-3.095 7.215-7.574 12.47-16.76 14.49-26.82 0.258-1.278 0.423-2.532 0.555-3.78 4.605-2.084 7.845-6.779 7.845-12.23 0-7.371-5.899-13.39-13.12-13.39-0.086 0-0.165 0.027-0.248 0.03-7.204-11.45-20.52-18.92-37-19.16-1.122-0.0153-2.235 0.0951-3.357 0.1563-2.085-4.594-6.622-7.815-11.9-7.815l7e-3 0.0295zm0 3.796c1.237-0.0041 2.461 0.2413 3.604 0.722s2.181 1.187 3.056 2.079c0.874 0.8917 1.566 1.951 2.038 3.117 0.471 1.166 0.711 2.415 0.707 3.676 4e-3 1.261-0.236 2.51-0.707 3.676-0.472 1.166-1.164 2.225-2.038 3.117-0.875 0.8916-1.913 1.598-3.056 2.079s-2.367 0.7261-3.604 0.7221c-1.236 4e-3 -2.461-0.2414-3.603-0.7221-1.143-0.4807-2.182-1.187-3.056-2.079-0.874-0.8917-1.567-1.951-2.038-3.117s-0.712-2.415-0.708-3.676c-4e-3 -1.261 0.237-2.51 0.708-3.676s1.164-2.225 2.038-3.117 1.913-1.598 3.056-2.079c1.142-0.4807 2.367-0.7261 3.603-0.722zm13.21 13.98c12.93 0.1793 23.21 5.689 29.1 14.07-1.806 2.295-2.936 5.165-2.936 8.325 0 5.593 3.405 10.39 8.205 12.39-0.094 1.172-0.252 2.336-0.475 3.489-1.404 6.967-4.827 13.48-9.615 19.06-2.192-1.573-4.806-2.419-7.486-2.422-7.226 0-13.12 6.018-13.12 13.39 0 1.148 0.195 2.238 0.46 3.302-6.06 2.452-12.59 3.88-19.29 3.787-2.659-0.038-5.153-0.383-7.575-0.86-0.709-6.7-6.229-11.97-12.98-11.97-2.276 0-4.391 0.646-6.262 1.694-5.242-5.777-8.002-13.39-7.623-21.8 4.826-1.982 8.261-6.794 8.261-12.41 0-2.509-0.7232-4.84-1.912-6.852 4.905-7.612 12.23-13.96 20.81-18.08 2.45 2.493 5.769 3.893 9.229 3.894 5.704 0 10.53-3.775 12.33-8.982 0.293-0.0043 0.585-0.0273 0.878-0.0229l7e-3 0.0076zm39.29 12.8c1.237-4e-3 2.462 0.241 3.605 0.722 1.143 0.48 2.181 1.187 3.056 2.079 0.874 0.892 1.567 1.951 2.038 3.117s0.712 2.416 0.708 3.677c3e-3 1.261-0.237 2.51-0.708 3.676-0.472 1.166-1.164 2.225-2.038 3.117s-1.913 1.598-3.056 2.079-2.367 0.726-3.603 0.722c-1.237 4e-3 -2.462-0.241-3.605-0.722-1.143-0.48-2.181-1.187-3.055-2.079-0.875-0.891-1.567-1.951-2.039-3.117-0.471-1.165-0.712-2.415-0.708-3.676-4e-3 -1.261 0.237-2.511 0.708-3.677s1.164-2.225 2.038-3.117 1.913-1.599 3.056-2.079c1.143-0.481 2.368-0.726 3.605-0.722h-2e-3zm-93.75 7.651c1.236-4e-3 2.461 0.241 3.604 0.722 1.143 0.481 2.181 1.187 3.055 2.079 0.8742 0.892 1.567 1.951 2.038 3.117 0.4711 1.166 0.7116 2.416 0.7075 3.677 0.0039 1.261-0.2366 2.51-0.7079 3.676-0.4712 1.166-1.164 2.225-2.038 3.117-0.8742 0.891-1.912 1.598-3.055 2.079-1.143 0.48-2.368 0.726-3.604 0.722-1.236 4e-3 -2.461-0.242-3.604-0.722-1.143-0.481-2.181-1.188-3.055-2.079-0.8741-0.892-1.567-1.951-2.038-3.117-0.4712-1.166-0.7118-2.415-0.7078-3.676-4e-3 -1.261 0.2366-2.511 0.7078-3.677 0.4713-1.165 1.164-2.225 2.038-3.116 0.8741-0.892 1.912-1.599 3.055-2.079 1.143-0.481 2.368-0.726 3.604-0.722v-1e-3zm71.25 38.26c1.237-4e-3 2.461 0.242 3.604 0.722 1.143 0.481 2.181 1.188 3.056 2.079 0.874 0.892 1.566 1.951 2.038 3.117 0.471 1.166 0.711 2.415 0.707 3.676 4e-3 1.261-0.236 2.511-0.707 3.677-0.472 1.165-1.164 2.225-2.038 3.116-0.875 0.892-1.913 1.599-3.056 2.079-1.143 0.481-2.367 0.726-3.604 0.722-1.236 4e-3 -2.461-0.241-3.603-0.722-1.143-0.48-2.182-1.187-3.056-2.079-0.874-0.891-1.566-1.951-2.038-3.116-0.471-1.166-0.712-2.416-0.708-3.677-4e-3 -1.261 0.237-2.51 0.708-3.676 0.472-1.166 1.164-2.225 2.038-3.117 0.874-0.891 1.913-1.598 3.056-2.079 1.142-0.48 2.367-0.726 3.603-0.722zm-52.5 7.651c1.237-4e-3 2.461 0.241 3.604 0.722 1.143 0.48 2.182 1.187 3.056 2.079 0.874 0.891 1.567 1.951 2.038 3.117 0.472 1.165 0.712 2.415 0.708 3.676 4e-3 1.261-0.236 2.511-0.708 3.677-0.471 1.165-1.164 2.225-2.038 3.116-0.874 0.892-1.913 1.599-3.056 2.079-1.143 0.481-2.367 0.726-3.604 0.722-1.236 4e-3 -2.461-0.241-3.604-0.722-1.143-0.481-2.181-1.187-3.055-2.079s-1.567-1.951-2.038-3.117c-0.4712-1.165-0.7118-2.415-0.7078-3.676-4e-3 -1.261 0.2366-2.51 0.7078-3.676 0.4713-1.166 1.164-2.225 2.038-3.117s1.912-1.598 3.055-2.079c1.143-0.481 2.368-0.726 3.604-0.722z" fill="url(#paint0_linear)"/>
  <path d="m155.6 20.32h-100.5c-5.973 0-10.76 4.792-10.76 10.76v193c0 5.973 4.792 10.76 10.76 10.76h144.8c5.992 0 10.85-4.856 10.85-10.81v-148.9l-55.08-54.83zm0-5.319h-100.5c-8.91 0-16.08 7.173-16.08 16.08v193c0 8.91 7.173 16.08 16.08 16.08h144.8c8.911 0 16.17-7.218 16.17-16.13l-2e-3 -148.9-60.4-60.15z" clip-rule="evenodd" fill="url(#paint1_linear)" fill-rule="evenodd"/>
  <path d="m155.6 17v44.23c0 8.91 7.259 15.93 16.17 15.93l44.23-0.0112v-2l-60.4-58.15z" fill="#282828" opacity=".25"/>
  <path d="m155.6 15v44.23c0 8.91 7.259 15.93 16.17 15.93l44.23-0.0112-60.4-60.15z" fill="url(#paint2_linear)"/>
  <defs>
    <linearGradient id="paint0_linear" x1="68" x2="68" y1="74" y2="181.1" gradientUnits="userSpaceOnUse">
      <stop stop-color="#d3869b" offset="1e-7"/>
      <stop stop-color="#b16286" offset=".5"/>
      <stop stop-color="#8f3f71" offset="1"/>
    </linearGradient>
    <linearGradient id="paint1_linear" x1="39" x2="39" y1="15" y2="240.2" gradientUnits="userSpaceOnUse">
      <stop stop-color="#d3869b" offset="1e-7"/>
      <stop stop-color="#b16286" offset=".5"/>
      <stop stop-color="#8f3f71" offset="1"/>
    </linearGradient>
    <linearGradient id="paint2_linear" x1="155.6" x2="155.6" y1="15" y2="75.16" gradientUnits="userSpaceOnUse">
      <stop stop-color="#d3869b" offset="1e-7"/>
      <stop stop-color="#b16286" offset=".5"/>
      <stop stop-color="#8f3f71" offset="1"/>
    </linearGradient>
  </defs>
</svg>
